/* XPM */
static char *netsurf[] = {
/* columns rows colors chars-per-pixel */
16 16 16 1,
"  c None",
"A c #FFFFFF",
"B c #FEFEFE",
"C c #FDFDFD",
"D c #FBFBFB",
"E c #F9F9F9",
"F c #F2F2F2",
"G c #EBEBEB",
"H c #CFCFCF",
"I c #ACACAC",
"J c #8F8F8F",
"K c #6E6E6E",
"L c #585858",
"M c #2F2F2F",
"N c #090909",
"O c #000000",
"LGCBAACDDCAABCGL",
"FABAACAAAACAABAF",
"ABAABAGIIGABAABA",
"BAACAJNOONJCCAAB",
"AACAJOOOOOJACAAA",
"ABBEMOOLLKILEAAA",
"ACAGNNLAAMOOGACA",
"AAACFFGHJONNFABA",
"AAAAAAIOONOKACAA",
"AAAADBIOOOLFCBAA",
"AAAABAHKJIAABAAA",
"AAAABBGKKEBCAAAA",
"BAAADAKOOKADAAAB",
"ABAADAJOOJADAABA",
"FABAABAIIABAABAF",
"LGCBAAAAAAAABCGL"
};
